vendor/shopware/storefront/Resources/app/storefront/dist/assets/icon/solid/arrow-up.svg

<svg xmlns="http://www.w3.org/2000/svg" xmlns:xlink="http://www.w3.org/1999/xlink" width="16" height="16" viewBox="0 0 16 16">
  <defs>
    <path id="icons-small-arrow-small-up-a" d="M5.70710678,5.29289322 C5.31658249,4.90236893 4.68341751,4.90236893 4.29289322,5.29289322 C3.90236893,5.68341751 3.90236893,6.31658249 4.29289322,6.70710678 L7.29289322,9.70710678 C7.68341751,10.0976311 8.31658249,10.0976311 8.70710678,9.70710678 L11.7071068,6.70710678 C12.0976311,6.31658249 12.0976311,5.68341751 11.7071068,5.29289322 C11.3165825,4.90236893 10.6834175,4.90236893 10.2928932,5.29289322 L8,7.58578644 L5.70710678,5.29289322 Z"/>
  </defs>
  <use fill="#758CA3" fill-rule="evenodd" transform="rotate(-180 8 7.5)" xlink:href="#icons-small-arrow-small-up-a"/>
</svg>

<svg xmlns="http://www.w3.org/2000/svg" xmlns:xlink="http://www.w3.org/1999/xlink" width="16" height="16" viewBox="0 0 16 16"><defs><path id="icons-small-arrow-small-up-a" d="M5.7071 5.2929c-.3905-.3905-1.0237-.3905-1.4142 0-.3905.3905-.3905 1.0237 0 1.4142l3 3c.3905.3905 1.0237.3905 1.4142 0l3-3c.3905-.3905.3905-1.0237 0-1.4142-.3905-.3905-1.0237-.3905-1.4142 0L8 7.5858l-2.2929-2.293z"/></defs><use fill="#758CA3" fill-rule="evenodd" transform="rotate(-180 8 7.5)" xlink:href="#icons-small-arrow-small-up-a"/></svg>
